resources/svg/bin.svg

<svg xmlns="http://www.w3.org/2000/svg" viewBox="0 0 15 15" fill="currentColor"><path fill-rule="evenodd" clip-rule="evenodd" d="M11 3V1.5C11 0.671573 10.3284 0 9.5 0H5.5C4.67157 0 4 0.671573 4 1.5V3H0V4H1V13.5C1 14.3284 1.67157 15 2.5 15H12.5C13.3284 15 14 14.3284 14 13.5V4H15V3H11ZM5 1.5C5 1.22386 5.22386 1 5.5 1H9.5C9.77614 1 10 1.22386 10 1.5V3H5V1.5ZM7 7V12H8V7H7ZM4 12V9H5V12H4ZM10 9V12H11V9H10Z" fill="black"/></svg>

<svg xmlns="http://www.w3.org/2000/svg" viewBox="0 0 15 15" fill="currentColor"><path fill-rule="evenodd" clip-rule="evenodd" d="M11 3V1.5A1.5 1.5 0 009.5 0h-4A1.5 1.5 0 004 1.5V3H0v1h1v9.5A1.5 1.5 0 002.5 15h10a1.5 1.5 0 001.5-1.5V4h1V3h-4zM5 1.5a.5.5 0 01.5-.5h4a.5.5 0 01.5.5V3H5V1.5zM7 7v5h1V7H7zm-3 5V9h1v3H4zm6-3v3h1V9h-1z" fill="currentColor"/></svg>
